carriers/postChDe.svg

<svg width="128" height="64" viewBox="0 0 128 64" fill="none" xmlns="http://www.w3.org/2000/svg">
<rect width="128" height="64" rx="6" fill="#FFCC00"/>
<path fill-rule="evenodd" clip-rule="evenodd" d="M89.392 44L90.6662 38.0219H18.1339L16.8684 44H89.392Z" fill="white"/>
<path fill-rule="evenodd" clip-rule="evenodd" d="M36.6487 27.5491H33.9519L31.2683 40.016H33.965L36.6487 27.5491Z" fill="black"/>
<path fill-rule="evenodd" clip-rule="evenodd" d="M46.1045 27.5491H38.5598L35.8979 40.016H43.5212L44.0099 37.7557H39.079L39.751 34.6531H44.023L44.5118 32.4059H40.2354L40.7896 29.7877H45.6158L46.1045 27.5491Z" fill="black"/>
<path fill-rule="evenodd" clip-rule="evenodd" d="M28.3798 34.0028C28.0612 35.4908 27.171 37.2712 25.2292 37.6726C24.8689 37.7343 24.5038 37.7635 24.1383 37.7599H22.8641L24.5398 29.8617H25.6961C26.0218 29.8588 26.3473 29.8821 26.6692 29.9316C28.4452 30.2326 28.8161 32.0392 28.3798 34.0028ZM27.3412 27.6363C26.8009 27.5745 26.2574 27.5454 25.7136 27.549H22.3056L19.6394 40.0159H24.1339C24.5538 40.0202 24.9735 39.9984 25.3907 39.9505C28.9078 39.5141 30.627 36.9657 31.1201 34.3694C31.8227 30.7476 30.5529 28.0988 27.3412 27.6363Z" fill="black"/>
<path fill-rule="evenodd" clip-rule="evenodd" d="M90.9191 27.5491H81.4501L80.9482 29.8575H84.3344L82.1526 40.016H84.8493L87.0311 29.8575H90.3999L90.9191 27.5491Z" fill="black"/>
<path fill-rule="evenodd" clip-rule="evenodd" d="M68.2023 33.8022C67.7659 35.8138 66.9456 37.9084 64.6677 37.9084C62.4859 37.9084 62.1674 35.8444 62.6212 33.8022C63.075 31.76 63.8779 29.696 66.1557 29.696C68.3376 29.696 68.6561 31.7556 68.2023 33.8022ZM66.3521 27.4138C62.0278 27.4138 60.3827 30.3462 59.6976 33.7804C59.0125 37.2145 60.4525 40.1513 64.3885 40.1513C68.7128 40.1513 70.3579 37.2145 71.043 33.7804C71.7281 30.3462 70.2881 27.4138 66.3521 27.4138Z" fill="black"/>
<path fill-rule="evenodd" clip-rule="evenodd" d="M72.4174 31.2145C72.4174 32.6894 73.325 33.3963 74.1628 34.064L75.5898 35.12C75.8609 35.3081 76.1137 35.5214 76.3447 35.7571C76.4457 35.8484 76.5272 35.9593 76.5842 36.0831C76.6412 36.2068 76.6725 36.3409 76.6763 36.4771C76.6813 36.6661 76.6358 36.8531 76.5445 37.0188C76.4532 37.1844 76.3195 37.3228 76.157 37.4196C75.5897 37.7862 74.7039 37.7862 74.1628 37.7862C73.2534 37.77 72.3511 37.623 71.4836 37.3498L70.6807 39.632C71.8661 39.9814 73.0973 40.1506 74.333 40.1338C75.4092 40.1771 76.4825 39.9943 77.4836 39.5971C78.137 39.3705 78.7028 38.9446 79.1013 38.3794C79.4998 37.8141 79.7108 37.1381 79.7047 36.4465C79.7142 35.7818 79.4903 35.1348 79.0719 34.6182C78.6748 34.1598 78.2252 33.7497 77.7323 33.3963L76.4232 32.4233C75.7687 31.9389 75.2843 31.5505 75.2843 30.9963C75.2874 30.7144 75.3988 30.4444 75.5953 30.2422C75.7918 30.04 76.0585 29.921 76.3403 29.9098C76.8187 29.8618 77.2997 29.8444 77.7803 29.8574H79.8268L80.3286 27.5447H78.0508C77.3007 27.5323 76.5505 27.5614 75.8036 27.632C74.0581 27.8327 72.3999 29.0894 72.3999 31.2145" fill="black"/>
<path fill-rule="evenodd" clip-rule="evenodd" d="M56.3941 31.9389C56.3298 32.3993 56.1246 32.8285 55.8066 33.1675C55.4886 33.5066 55.0734 33.739 54.6181 33.8327C54.3303 33.8864 54.0382 33.9142 53.7454 33.9156H52.6501L53.5229 29.8443H54.6967C54.9623 29.8338 55.2277 29.8677 55.4821 29.9447C56.1541 30.1629 56.5556 30.8174 56.3549 31.9389M55.9927 27.6363C55.5867 27.5767 55.1768 27.5476 54.7665 27.5491H51.3672L48.6836 40.0203H51.3672L52.1876 36.2152H53.7454C54.3807 36.2333 55.015 36.1538 55.6261 35.9796C56.5103 35.7117 57.3019 35.202 57.9118 34.508C58.5217 33.8141 58.9255 32.9636 59.0778 32.0523C59.5141 29.7265 58.3229 27.9985 55.9927 27.6145" fill="black"/>
<path fill-rule="evenodd" clip-rule="evenodd" d="M103.556 27.536L105.158 20H95.0255C95.0255 20.0262 92.9222 29.8313 92.9135 29.8705H95.4138C95.4138 29.8444 97.0284 22.3345 97.0284 22.3345H102.147L100.532 29.8705H108.129L107.121 34.5833H99.568C99.568 34.6138 98.0582 41.6349 98.0582 41.6349H92.3331C92.3331 41.6611 91.84 43.9607 91.8313 44H100.07C100.07 43.9738 101.584 36.9353 101.584 36.9353H109.116C109.116 36.9091 111.123 27.5753 111.132 27.536H103.556Z" fill="#FF0000"/>
</svg>

<svg xmlns="http://www.w3.org/2000/svg" width="128" height="64" fill="none"><rect width="128" height="64" fill="#FC0" rx="6"/><path fill="#fff" fill-rule="evenodd" d="m89.392 44 1.274-5.978H18.134L16.868 44h72.524Z" clip-rule="evenodd"/><path fill="#000" fill-rule="evenodd" d="M36.649 27.55h-2.697l-2.684 12.466h2.697l2.684-12.467ZM46.105 27.55H38.56l-2.662 12.466h7.623l.489-2.26h-4.931l.672-3.103h4.272l.489-2.247h-4.277l.555-2.618h4.826l.489-2.239ZM28.38 34.003c-.319 1.488-1.209 3.268-3.15 3.67-.361.061-.726.09-1.092.087h-1.274l1.676-7.898h1.156c.326-.003.651.02.973.07 1.776.3 2.147 2.107 1.71 4.07Zm-1.039-6.367c-.54-.061-1.084-.09-1.627-.087h-3.408l-2.667 12.467h4.495c.42.004.84-.018 1.257-.066 3.517-.436 5.236-2.984 5.73-5.58.702-3.622-.568-6.271-3.78-6.734ZM90.92 27.55h-9.47l-.502 2.308h3.386l-2.181 10.158h2.696l2.182-10.158H90.4l.52-2.309ZM68.202 33.802c-.436 2.012-1.256 4.106-3.534 4.106-2.182 0-2.5-2.064-2.047-4.106.454-2.042 1.257-4.106 3.535-4.106 2.182 0 2.5 2.06 2.046 4.106Zm-1.85-6.388c-4.324 0-5.97 2.932-6.654 6.366-.685 3.434.755 6.371 4.69 6.371 4.325 0 5.97-2.937 6.655-6.37.685-3.435-.755-6.367-4.69-6.367ZM72.417 31.215c0 1.474.908 2.181 1.746 2.849l1.427 1.056c.27.188.524.401.755.637a1.007 1.007 0 0 1 .331.72 1.064 1.064 0 0 1-.519.943c-.567.366-1.453.366-1.994.366a9.481 9.481 0 0 1-2.68-.436l-.802 2.282c1.185.35 2.416.519 3.652.502a7.703 7.703 0 0 0 3.15-.537 3.304 3.304 0 0 0 2.222-3.15 2.84 2.84 0 0 0-.633-1.829 7.737 7.737 0 0 0-1.34-1.222l-1.309-.973c-.654-.484-1.139-.873-1.139-1.427a1.1 1.1 0 0 1 1.056-1.086c.479-.048.96-.066 1.44-.053h2.047l.502-2.312H78.05c-.75-.013-1.5.016-2.247.087-1.746.2-3.404 1.457-3.404 3.582M56.394 31.939a2.25 2.25 0 0 1-1.776 1.894c-.288.053-.58.081-.873.083H52.65l.873-4.072h1.174c.265-.01.53.024.785.1.672.219 1.074.873.873 1.995m-.362-4.303a8.235 8.235 0 0 0-1.227-.087h-3.399L48.684 40.02h2.683l.82-3.805h1.558a6.215 6.215 0 0 0 1.881-.235 4.956 4.956 0 0 0 3.452-3.928c.436-2.325-.755-4.053-3.085-4.438" clip-rule="evenodd"/><path fill="red" fill-rule="evenodd" d="M103.556 27.536 105.158 20H95.025c0 .026-2.103 9.831-2.112 9.87h2.5c0-.026 1.615-7.536 1.615-7.536h5.119l-1.615 7.537h7.597l-1.008 4.712h-7.553c0 .03-1.51 7.052-1.51 7.052h-5.725c0 .026-.493 2.326-.502 2.365h8.239c0-.026 1.514-7.065 1.514-7.065h7.532c0-.026 2.007-9.36 2.016-9.399h-7.576Z" clip-rule="evenodd"/></svg>
